Newaita-dark/apps/32/wps-office-etmain.svg

<?xml version="1.0" encoding="UTF-8"?>
<svg xmlns="http://www.w3.org/2000/svg" xmlns:xlink="http://www.w3.org/1999/xlink" width="32pt" height="32pt" viewBox="0 0 32 32" version="1.1">
<defs>
<linearGradient id="linear0" gradientUnits="userSpaceOnUse" x1="254" y1="233.5" x2="254" y2="254.666672" gradientTransform="matrix(0.062506,0,0,0.062506,-0.00000381506,13.438785)">
<stop offset="0" style="stop-color:rgb(0%,0%,0%);stop-opacity:0.27451;"/>
<stop offset="1" style="stop-color:rgb(0%,0%,0%);stop-opacity:0;"/>
</linearGradient>
<radialGradient id="radial0" gradientUnits="userSpaceOnUse" cx="450.908936" cy="189.579361" fx="450.908936" fy="189.579361" r="21.166656" gradientTransform="matrix(0.00000017417,-0.0781325,-0.140638,-0.000000101539,48.823045,63.595333)">
<stop offset="0" style="stop-color:rgb(0%,0%,0%);stop-opacity:0.313725;"/>
<stop offset="0.222222" style="stop-color:rgb(0%,0%,0%);stop-opacity:0.27451;"/>
<stop offset="1" style="stop-color:rgb(0%,0%,0%);stop-opacity:0;"/>
</radialGradient>
<radialGradient id="radial1" gradientUnits="userSpaceOnUse" cx="450.908936" cy="189.579361" fx="450.908936" fy="189.579361" r="21.166656" gradientTransform="matrix(-0.00000017417,0.0781325,0.140638,0.000000101539,-17.731532,-7.527479)">
<stop offset="0" style="stop-color:rgb(0%,0%,0%);stop-opacity:0.313725;"/>
<stop offset="0.222222" style="stop-color:rgb(0%,0%,0%);stop-opacity:0.27451;"/>
<stop offset="1" style="stop-color:rgb(0%,0%,0%);stop-opacity:0;"/>
</radialGradient>
<radialGradient id="radial2" gradientUnits="userSpaceOnUse" cx="450.908936" cy="189.579361" fx="450.908936" fy="189.579361" r="21.166656" gradientTransform="matrix(-0.00000017417,-0.0781325,0.140638,-0.000000101539,-17.731532,63.595333)">
<stop offset="0" style="stop-color:rgb(0%,0%,0%);stop-opacity:0.313725;"/>
<stop offset="0.222222" style="stop-color:rgb(0%,0%,0%);stop-opacity:0.27451;"/>
<stop offset="1" style="stop-color:rgb(0%,0%,0%);stop-opacity:0;"/>
</radialGradient>
<radialGradient id="radial3" gradientUnits="userSpaceOnUse" cx="450.908936" cy="189.579361" fx="450.908936" fy="189.579361" r="21.166656" gradientTransform="matrix(0.00000017417,0.0781325,-0.140638,0.000000101539,48.823043,-7.527479)">
<stop offset="0" style="stop-color:rgb(0%,0%,0%);stop-opacity:0.313725;"/>
<stop offset="0.222222" style="stop-color:rgb(0%,0%,0%);stop-opacity:0.27451;"/>
<stop offset="1" style="stop-color:rgb(0%,0%,0%);stop-opacity:0;"/>
</radialGradient>
<filter id="alpha" filterUnits="objectBoundingBox" x="0%" y="0%" width="100%" height="100%">
  <feColorMatrix type="matrix" in="SourceGraphic" values="0 0 0 0 1 0 0 0 0 1 0 0 0 0 1 0 0 0 1 0"/>
</filter>
<mask id="mask0">
  <g filter="url(#alpha)">
<rect x="0" y="0" width="32" height="32" style="fill:rgb(0%,0%,0%);fill-opacity:0.988235;stroke:none;"/>
  </g>
</mask>
<linearGradient id="linear1" gradientUnits="userSpaceOnUse" x1="940" y1="1695.118164" x2="940" y2="175.118118" gradientTransform="matrix(0.016538,0,0,0.016538,0,0)">
<stop offset="0" style="stop-color:rgb(93.333333%,93.333333%,93.333333%);stop-opacity:1;"/>
<stop offset="1" style="stop-color:rgb(96.078431%,96.078431%,96.078431%);stop-opacity:1;"/>
</linearGradient>
<clipPath id="clip1">
  <rect x="0" y="0" width="32" height="32"/>
</clipPath>
<g id="surface5" clip-path="url(#clip1)">
<path style=" stroke:none;fill-rule:nonzero;fill:url(#linear1);" d="M 7.277344 2.894531 C 6.542969 2.894531 5.953125 3.484375 5.953125 4.21875 L 5.953125 26.710938 C 5.953125 27.445312 6.542969 28.035156 7.277344 28.035156 L 23.816406 28.035156 C 24.546875 28.035156 25.136719 27.445312 25.136719 26.710938 L 25.136719 8.851562 L 19.183594 2.894531 Z M 20.507812 2.894531 L 25.136719 7.527344 L 25.136719 4.21875 C 25.136719 3.484375 24.546875 2.894531 23.816406 2.894531 Z M 20.507812 2.894531 "/>
</g>
<mask id="mask1">
  <g filter="url(#alpha)">
<rect x="0" y="0" width="32" height="32" style="fill:rgb(0%,0%,0%);fill-opacity:0.988235;stroke:none;"/>
  </g>
</mask>
<linearGradient id="linear2" gradientUnits="userSpaceOnUse" x1="940" y1="1695.118164" x2="940" y2="175.118118" gradientTransform="matrix(0.016538,0,0,0.016538,0,0)">
<stop offset="0" style="stop-color:rgb(40%,73.333333%,41.568627%);stop-opacity:1;"/>
<stop offset="1" style="stop-color:rgb(50.588235%,78.039216%,51.764706%);stop-opacity:1;"/>
</linearGradient>
<clipPath id="clip2">
  <rect x="0" y="0" width="32" height="32"/>
</clipPath>
<g id="surface8" clip-path="url(#clip2)">
<path style=" stroke:none;fill-rule:nonzero;fill:url(#linear2);" d="M 20.507812 2.894531 L 25.136719 7.527344 L 25.136719 4.21875 C 25.136719 3.484375 24.546875 2.894531 23.816406 2.894531 Z M 20.507812 2.894531 "/>
</g>
<mask id="mask2">
  <g filter="url(#alpha)">
<rect x="0" y="0" width="32" height="32" style="fill:rgb(0%,0%,0%);fill-opacity:0.988235;stroke:none;"/>
  </g>
</mask>
<clipPath id="clip3">
  <rect x="0" y="0" width="32" height="32"/>
</clipPath>
<g id="surface11" clip-path="url(#clip3)">
<path style=" stroke:none;fill-rule:nonzero;fill:rgb(100%,100%,100%);fill-opacity:0.392157;" d="M 7.277344 2.894531 C 6.542969 2.894531 5.953125 3.484375 5.953125 4.21875 L 5.953125 4.550781 C 5.953125 3.816406 6.542969 3.226562 7.277344 3.226562 L 19.183594 3.226562 L 25.136719 9.179688 L 25.136719 8.851562 L 19.183594 2.894531 Z M 20.507812 2.894531 L 20.839844 3.226562 L 23.816406 3.226562 C 24.546875 3.226562 25.136719 3.816406 25.136719 4.550781 L 25.136719 4.21875 C 25.136719 3.484375 24.546875 2.894531 23.816406 2.894531 Z M 20.507812 2.894531 "/>
</g>
<mask id="mask3">
  <g filter="url(#alpha)">
<rect x="0" y="0" width="32" height="32" style="fill:rgb(0%,0%,0%);fill-opacity:0.988235;stroke:none;"/>
  </g>
</mask>
<clipPath id="clip4">
  <rect x="0" y="0" width="32" height="32"/>
</clipPath>
<g id="surface14" clip-path="url(#clip4)">
<path style=" stroke:none;fill-rule:nonzero;fill:rgb(0%,0%,0%);fill-opacity:0.235294;" d="M 20.507812 2.894531 L 25.136719 7.527344 L 25.136719 7.035156 L 20.996094 2.894531 Z M 5.953125 26.21875 L 5.953125 26.710938 C 5.953125 27.445312 6.542969 28.035156 7.277344 28.035156 L 23.816406 28.035156 C 24.546875 28.035156 25.136719 27.445312 25.136719 26.710938 L 25.136719 26.21875 C 25.136719 26.953125 24.546875 27.542969 23.816406 27.542969 L 7.277344 27.542969 C 6.542969 27.542969 5.953125 26.953125 5.953125 26.21875 Z M 5.953125 26.21875 "/>
</g>
<mask id="mask4">
  <g filter="url(#alpha)">
<rect x="0" y="0" width="32" height="32" style="fill:rgb(0%,0%,0%);fill-opacity:0.988235;stroke:none;"/>
  </g>
</mask>
<clipPath id="clip5">
  <rect x="0" y="0" width="32" height="32"/>
</clipPath>
<g id="surface17" clip-path="url(#clip5)">
<path style=" stroke:none;fill-rule:nonzero;fill:rgb(12.941177%,12.941177%,12.941177%);fill-opacity:1;" d="M 7.277344 2.800781 C 6.492188 2.800781 5.859375 3.4375 5.859375 4.21875 L 5.859375 26.710938 C 5.859375 27.496094 6.492188 28.128906 7.277344 28.128906 L 23.816406 28.128906 C 24.597656 28.128906 25.230469 27.496094 25.230469 26.710938 L 25.230469 8.851562 C 25.230469 8.824219 25.222656 8.800781 25.203125 8.785156 L 19.25 2.828125 C 19.234375 2.8125 19.210938 2.800781 19.183594 2.800781 Z M 20.507812 2.800781 C 20.46875 2.800781 20.433594 2.824219 20.421875 2.859375 C 20.40625 2.894531 20.414062 2.9375 20.441406 2.960938 L 25.070312 7.59375 C 25.097656 7.621094 25.136719 7.628906 25.171875 7.613281 C 25.207031 7.597656 25.230469 7.566406 25.230469 7.527344 L 25.230469 4.21875 C 25.230469 3.4375 24.597656 2.800781 23.816406 2.800781 Z M 7.277344 2.988281 L 19.144531 2.988281 L 25.042969 8.886719 L 25.042969 26.710938 C 25.042969 27.394531 24.496094 27.941406 23.816406 27.941406 L 7.277344 27.941406 C 6.59375 27.941406 6.046875 27.394531 6.046875 26.710938 L 6.046875 4.21875 C 6.046875 3.535156 6.59375 2.988281 7.277344 2.988281 Z M 20.734375 2.988281 L 23.816406 2.988281 C 24.496094 2.988281 25.042969 3.535156 25.042969 4.21875 L 25.042969 7.300781 Z M 20.734375 2.988281 "/>
</g>
<linearGradient id="linear3" gradientUnits="userSpaceOnUse" x1="254" y1="148.833328" x2="248.708344" y2="-62.833332" >
<stop offset="0" style="stop-color:rgb(61.960784%,61.960784%,61.960784%);stop-opacity:1;"/>
<stop offset="1" style="stop-color:rgb(74.117647%,74.117647%,74.117647%);stop-opacity:1;"/>
</linearGradient>
<linearGradient id="linear4" gradientUnits="userSpaceOnUse" x1="243.416656" y1="259.296906" x2="243.416656" y2="-59.085064" gradientTransform="matrix(1,0,0,1.263158,0.0000101725,-94.032906)">
<stop offset="0" style="stop-color:rgb(40%,73.333333%,41.568627%);stop-opacity:1;"/>
<stop offset="1" style="stop-color:rgb(50.588235%,78.039216%,51.764706%);stop-opacity:1;"/>
</linearGradient>
</defs>
<g id="surface1">
<path style=" stroke:none;fill-rule:nonzero;fill:url(#linear0);" d="M 8.601562 28.035156 L 22.492188 28.035156 L 22.492188 29.355469 L 8.601562 29.355469 Z M 8.601562 28.035156 "/>
<path style=" stroke:none;fill-rule:nonzero;fill:url(#radial0);" d="M 22.492188 28.035156 L 25.136719 28.035156 L 25.136719 26.710938 L 22.492188 26.710938 Z M 22.492188 28.035156 "/>
<path style=" stroke:none;fill-rule:nonzero;fill:url(#radial1);" d="M 8.601562 28.035156 L 5.953125 28.035156 L 5.953125 29.355469 L 8.601562 29.355469 Z M 8.601562 28.035156 "/>
<path style=" stroke:none;fill-rule:nonzero;fill:url(#radial2);" d="M 8.601562 28.035156 L 5.953125 28.035156 L 5.953125 26.710938 L 8.601562 26.710938 Z M 8.601562 28.035156 "/>
<path style=" stroke:none;fill-rule:nonzero;fill:url(#radial3);" d="M 22.492188 28.035156 L 25.136719 28.035156 L 25.136719 29.355469 L 22.492188 29.355469 Z M 22.492188 28.035156 "/>
<use xlink:href="#surface5" mask="url(#mask0)"/>
<use xlink:href="#surface8" mask="url(#mask1)"/>
<use xlink:href="#surface11" mask="url(#mask2)"/>
<use xlink:href="#surface14" mask="url(#mask3)"/>
<use xlink:href="#surface17" mask="url(#mask4)"/>
<path style="fill-rule:nonzero;fill:url(#linear3);stroke-width:3;stroke-linecap:round;stroke-linejoin:round;stroke:rgb(12.941177%,12.941177%,12.941177%);stroke-opacity:1;stroke-miterlimit:4;" d="M 160.42218 -0.270506 C 150.298147 5.603933 146.798481 18.477704 152.67292 28.664231 L 210.917358 129.467105 C 216.729303 139.591138 229.665568 143.090804 239.789601 137.216365 L 340.592475 79.034421 C 350.779002 73.159982 354.216174 60.223717 348.341735 50.099684 L 290.159791 -50.70319 C 284.285352 -60.889717 271.411581 -64.326889 261.225054 -58.45245 Z M 180.857729 24.602119 L 222.10379 0.791893 L 235.352525 23.664709 L 184.919841 52.786928 L 177.295569 39.475699 C 174.170868 34.163706 175.795712 27.539339 180.857729 24.602119 Z M 235.852477 -7.144849 L 272.536474 -28.330326 C 277.598491 -31.267546 284.160364 -29.330231 287.285066 -24.018238 L 294.909338 -10.707009 L 249.101212 15.727967 Z M 192.856583 66.535615 L 243.289267 37.413396 L 256.538002 60.348706 L 206.105318 89.470924 Z M 257.037954 29.476654 L 302.84608 3.041678 L 316.094814 25.976988 L 270.286689 52.411963 Z M 214.04206 103.219612 L 264.474744 74.097393 L 277.660985 97.032702 L 236.477418 120.842929 C 231.352907 123.780148 224.791034 121.842833 221.728826 116.468346 Z M 278.223431 66.16065 L 324.031557 39.725675 L 331.718322 52.97441 C 334.78053 58.348896 333.155685 64.973264 328.093669 67.910483 L 291.409672 89.09596 Z M 278.223431 66.16065 " transform="matrix(0.062506,0,0,0.062506,0,13.438783)"/>
<path style="fill-rule:nonzero;fill:url(#linear4);stroke-width:3;stroke-linecap:round;stroke-linejoin:round;stroke:rgb(0%,0%,0%);stroke-opacity:1;stroke-miterlimit:4;" d="M 95.240905 53.59935 L 402.149097 53.59935 L 402.149097 154.152248 L 95.240905 154.152248 Z M 95.240905 53.59935 " transform="matrix(0.062506,0,0,0.062506,0,13.438783)"/>
</g>
</svg>

<svg xmlns="http://www.w3.org/2000/svg" xmlns:xlink="http://www.w3.org/1999/xlink" width="32pt" height="32pt" viewBox="0 0 32 32"><defs><linearGradient id="i" gradientUnits="userSpaceOnUse" x1="254" y1="233.5" x2="254" y2="254.667" gradientTransform="matrix(.0625 0 0 .0625 0 13.439)"><stop offset="0" stop-opacity=".275"/><stop offset="1" stop-opacity="0"/></linearGradient><radialGradient id="j" gradientUnits="userSpaceOnUse" cx="450.909" cy="189.579" fx="450.909" fy="189.579" r="21.167" gradientTransform="matrix(0 -.07813 -.14064 0 48.823 63.595)"><stop offset="0" stop-opacity=".314"/><stop offset=".222" stop-opacity=".275"/><stop offset="1" stop-opacity="0"/></radialGradient><radialGradient id="k" gradientUnits="userSpaceOnUse" cx="450.909" cy="189.579" fx="450.909" fy="189.579" r="21.167" gradientTransform="matrix(0 .07813 .14064 0 -17.732 -7.527)"><stop offset="0" stop-opacity=".314"/><stop offset=".222" stop-opacity=".275"/><stop offset="1" stop-opacity="0"/></radialGradient><radialGradient id="l" gradientUnits="userSpaceOnUse" cx="450.909" cy="189.579" fx="450.909" fy="189.579" r="21.167" gradientTransform="matrix(0 -.07813 .14064 0 -17.732 63.595)"><stop offset="0" stop-opacity=".314"/><stop offset=".222" stop-opacity=".275"/><stop offset="1" stop-opacity="0"/></radialGradient><radialGradient id="m" gradientUnits="userSpaceOnUse" cx="450.909" cy="189.579" fx="450.909" fy="189.579" r="21.167" gradientTransform="matrix(0 .07813 -.14064 0 48.823 -7.527)"><stop offset="0" stop-opacity=".314"/><stop offset=".222" stop-opacity=".275"/><stop offset="1" stop-opacity="0"/></radialGradient><filter id="a" filterUnits="objectBoundingBox" x="0%" y="0%" width="100%" height="100%"><feColorMatrix in="SourceGraphic" values="0 0 0 0 1 0 0 0 0 1 0 0 0 0 1 0 0 0 1 0"/></filter><mask id="o"><path fill-opacity=".988" d="M0 0h32v32H0z" filter="url(#a)"/></mask><linearGradient id="c" gradientUnits="userSpaceOnUse" x1="940" y1="1695.118" x2="940" y2="175.118" gradientTransform="rotate(.891) scale(.01654)"><stop offset="0" stop-color="#eee"/><stop offset="1" stop-color="#f5f5f5"/></linearGradient><clipPath id="b"><path d="M0 0h32v32H0z"/></clipPath><g id="n" clip-path="url(#b)"><path d="M7.277 2.895a1.32 1.32 0 0 0-1.324 1.324V26.71c0 .734.59 1.324 1.324 1.324h16.54c.73 0 1.32-.59 1.32-1.324V8.85l-5.953-5.956zm13.23 0l4.63 4.632V4.22a1.32 1.32 0 0 0-1.32-1.324zm0 0" fill="url(#c)"/></g><mask id="q"><path fill-opacity=".988" d="M0 0h32v32H0z" filter="url(#a)"/></mask><linearGradient id="e" gradientUnits="userSpaceOnUse" x1="940" y1="1695.118" x2="940" y2="175.118" gradientTransform="rotate(.891) scale(.01654)"><stop offset="0" stop-color="#66bb6a"/><stop offset="1" stop-color="#81c784"/></linearGradient><clipPath id="d"><path d="M0 0h32v32H0z"/></clipPath><g id="p" clip-path="url(#d)"><path d="M20.508 2.895l4.629 4.632V4.22a1.32 1.32 0 0 0-1.32-1.324zm0 0" fill="url(#e)"/></g><mask id="s"><path fill-opacity=".988" d="M0 0h32v32H0z" filter="url(#a)"/></mask><clipPath id="f"><path d="M0 0h32v32H0z"/></clipPath><g id="r" clip-path="url(#f)"><path d="M7.277 2.895a1.32 1.32 0 0 0-1.324 1.324v.332c0-.735.59-1.324 1.324-1.324h11.907l5.953 5.953v-.328l-5.953-5.957zm13.23 0l.333.332h2.976c.73 0 1.32.59 1.32 1.324v-.332a1.32 1.32 0 0 0-1.32-1.324zm0 0" fill="#fff" fill-opacity=".392"/></g><mask id="u"><path fill-opacity=".988" d="M0 0h32v32H0z" filter="url(#a)"/></mask><clipPath id="g"><path d="M0 0h32v32H0z"/></clipPath><g id="t" clip-path="url(#g)"><path d="M20.508 2.895l4.629 4.632v-.492l-4.14-4.14zM5.953 26.219v.492c0 .734.59 1.324 1.324 1.324h16.54c.73 0 1.32-.59 1.32-1.324v-.492a1.32 1.32 0 0 1-1.32 1.324H7.276a1.32 1.32 0 0 1-1.324-1.324zm0 0" fill-opacity=".235"/></g><mask id="w"><path fill-opacity=".988" d="M0 0h32v32H0z" filter="url(#a)"/></mask><clipPath id="h"><path d="M0 0h32v32H0z"/></clipPath><g id="v" clip-path="url(#h)"><path d="M7.277 2.8c-.785 0-1.418.638-1.418 1.419V26.71c0 .785.633 1.418 1.418 1.418h16.54c.78 0 1.413-.633 1.413-1.418V8.85c0-.027-.007-.05-.027-.066L19.25 2.828a.094.094 0 0 0-.066-.027zm13.23 0a.09.09 0 0 0-.085.06.089.089 0 0 0 .02.1l4.628 4.634a.09.09 0 0 0 .102.02.093.093 0 0 0 .058-.087V4.22c0-.782-.632-1.418-1.414-1.418zm-13.23.188h11.868l5.898 5.899V26.71c0 .684-.547 1.23-1.227 1.23H7.277c-.683 0-1.23-.546-1.23-1.23V4.219c0-.684.547-1.23 1.23-1.23zm13.457 0h3.082c.68 0 1.227.547 1.227 1.23v3.083zm0 0" fill="#212121"/></g><linearGradient id="x" gradientUnits="userSpaceOnUse" x1="254" y1="148.833" x2="248.708" y2="-62.833"><stop offset="0" stop-color="#9e9e9e"/><stop offset="1" stop-color="#bdbdbd"/></linearGradient><linearGradient id="y" gradientUnits="userSpaceOnUse" x1="243.417" y1="259.297" x2="243.417" y2="-59.085" gradientTransform="matrix(1 0 0 1.26316 0 -94.033)"><stop offset="0" stop-color="#66bb6a"/><stop offset="1" stop-color="#81c784"/></linearGradient></defs><path d="M8.602 28.035h13.89v1.32H8.602zm0 0" fill="url(#i)"/><path d="M22.492 28.035h2.645v-1.324h-2.645zm0 0" fill="url(#j)"/><path d="M8.602 28.035H5.953v1.32h2.649zm0 0" fill="url(#k)"/><path d="M8.602 28.035H5.953v-1.324h2.649zm0 0" fill="url(#l)"/><path d="M22.492 28.035h2.645v1.32h-2.645zm0 0" fill="url(#m)"/><use xlink:href="#n" mask="url(#o)"/><use xlink:href="#p" mask="url(#q)"/><use xlink:href="#r" mask="url(#s)"/><use xlink:href="#t" mask="url(#u)"/><use xlink:href="#v" mask="url(#w)"/><path d="M160.422-.27c-10.124 5.874-13.624 18.748-7.75 28.934l58.245 100.803c5.812 10.124 18.749 13.624 28.873 7.75l100.802-58.183c10.187-5.874 13.624-18.81 7.75-28.934L290.16-50.703c-5.875-10.187-18.748-13.624-28.935-7.75zm20.436 24.872L222.104.792l13.249 22.873-50.433 29.122-7.624-13.311c-3.125-5.312-1.5-11.937 3.562-14.874zm54.994-31.747l36.684-21.185c5.062-2.938 11.624-1 14.75 4.312l7.623 13.311-45.808 26.435zm-42.995 73.68l50.432-29.122 13.249 22.936-50.433 29.122zm64.181-37.058l45.808-26.435 13.249 22.935-45.808 26.435zm-42.996 73.743l50.433-29.123 13.186 22.936-41.184 23.81c-5.124 2.937-11.686 1-14.748-4.375zm64.181-37.06l45.809-26.434 7.686 13.248c3.063 5.375 1.438 12-3.624 14.936L291.41 89.096zm0 0" transform="matrix(.0625 0 0 .0625 0 13.439)" fill="url(#x)" stroke-width="3" stroke-linecap="round" stroke-linejoin="round" stroke="#212121"/><path d="M95.24 53.6h306.91v100.552H95.24zm0 0" transform="matrix(.0625 0 0 .0625 0 13.439)" fill="url(#y)" stroke-width="3" stroke-linecap="round" stroke-linejoin="round" stroke="#000"/></svg>
